public/images/v3/aniAiCreatorBuddy.svg

<svg width="370" height="79" viewBox="0 0 370 79" fill="none" xmlns="http://www.w3.org/2000/svg">
<path d="M67.4715 7.21924H73.0412L84.0251 41.657H79.0696L76.2079 32.3849H64.2529L61.3913 41.657H56.4876L67.4715 7.21924ZM74.9815 28.3086L71.7111 17.6625C71.2524 16.2368 70.74 14.147 70.2295 12.2122C69.8207 14.1489 69.2583 16.1851 68.7996 17.6625L65.4793 28.3086H74.9815Z" fill="#F7F7F7"/>
<path d="M88.0114 25.4054C88.0114 18.4777 92.6598 14.7593 98.1777 14.7593C103.696 14.7593 108.294 18.4777 108.294 25.4054V41.6569H103.594V25.6618C103.594 21.1282 101.346 18.8872 98.1777 18.8872C95.009 18.8872 92.7116 21.1282 92.7116 25.6618V41.6569H88.0114V25.4054Z" fill="#F7F7F7"/>
<path d="M114.121 8.03441C114.121 6.45558 115.449 5.18103 117.084 5.18103C118.719 5.18103 120.048 6.45367 120.048 8.03441C120.048 9.61516 118.668 10.9376 117.084 10.9376C115.501 10.9376 114.121 9.66492 114.121 8.03441ZM114.733 15.4214H119.433V41.6569H114.733V15.4214Z" fill="#F7F7F7"/>
<path d="M23.3171 0.5C10.46 0.5 0 10.9299 0 23.75C0 36.5701 10.46 47 23.3171 47C36.1742 47 46.6341 36.5701 46.6341 23.75C46.6341 10.9299 36.1761 0.5 23.3171 0.5ZM23.3171 43.85C12.2026 43.85 3.1591 34.8344 3.1591 23.75C3.1591 12.6656 12.2026 3.65001 23.3171 3.65001C34.4315 3.65001 43.4731 12.6675 43.4731 23.75C43.4731 34.8325 34.4315 43.85 23.3171 43.85Z" fill="#ED2127" fill-opacity="0.87"/>
<path d="M41.1143 23.75C41.1143 33.5503 33.1456 41.4961 23.3171 41.4961C13.4885 41.4961 5.51979 33.5503 5.51979 23.75C5.51979 13.9497 13.4885 6.00391 23.3171 6.00391C33.1456 6.00391 41.1143 13.9497 41.1143 23.75Z" fill="#ED2127" fill-opacity="0.87"/>
<path d="M64.6953 71.8203H56.0469L54.0605 78.5H50.7559L59 52.9062H61.7598L70.0215 78.5H66.7168L64.6953 71.8203ZM56.8906 69.043H63.8691L60.3711 57.4062L56.8906 69.043ZM76.1394 78.5H72.9226V52.9062H76.1394V78.5ZM104.653 70.3789C104.512 73.1211 103.738 75.2188 102.332 76.6719C100.938 78.125 98.963 78.8516 96.4084 78.8516C93.842 78.8516 91.8029 77.8789 90.2912 75.9336C88.7795 73.9766 88.0236 71.3281 88.0236 67.9883V63.3477C88.0236 60.0195 88.797 57.3887 90.3439 55.4551C91.9025 53.5215 94.0236 52.5547 96.7072 52.5547C99.1798 52.5547 101.09 53.2988 102.438 54.7871C103.797 56.2637 104.535 58.3789 104.653 61.1328H101.401C101.26 59.0469 100.82 57.5586 100.082 56.668C99.3439 55.7773 98.2189 55.332 96.7072 55.332C94.9611 55.332 93.6193 56.0176 92.6818 57.3887C91.7443 58.748 91.2755 60.7461 91.2755 63.3828V68.0762C91.2755 70.666 91.7091 72.6523 92.5763 74.0352C93.4552 75.418 94.7326 76.1094 96.4084 76.1094C98.0841 76.1094 99.2912 75.6934 100.029 74.8613C100.768 74.0293 101.225 72.5352 101.401 70.3789H104.653ZM116.044 68.1465H111.544V78.5H108.309V52.9062H115.481C117.989 52.9062 119.888 53.5625 121.177 54.875C122.466 56.1758 123.11 58.0859 123.11 60.6055C123.11 62.1875 122.759 63.5703 122.056 64.7539C121.364 65.9258 120.38 66.8105 119.102 67.4082L124.059 78.2891V78.5H120.597L116.044 68.1465ZM111.544 65.3867H115.446C116.794 65.3867 117.866 64.9531 118.663 64.0859C119.472 63.2188 119.876 62.0586 119.876 60.6055C119.876 57.3242 118.388 55.6836 115.411 55.6836H111.544V65.3867ZM138.984 66.6699H129.931V75.7402H140.478V78.5H126.714V52.9062H140.302V55.6836H129.931V63.9102H138.984V66.6699ZM155.825 71.8203H147.176L145.19 78.5H141.885L150.129 52.9062H152.889L161.151 78.5H157.846L155.825 71.8203ZM148.02 69.043H154.998L151.5 57.4062L148.02 69.043ZM176.585 55.6836H169.853V78.5H166.636V55.6836H159.921V52.9062H176.585V55.6836ZM195.799 67.9531C195.799 71.4453 195.054 74.1348 193.566 76.0215C192.078 77.9082 189.963 78.8516 187.22 78.8516C184.584 78.8516 182.498 77.9375 180.963 76.1094C179.439 74.2695 178.648 71.6738 178.59 68.3223V63.5059C178.59 60.084 179.345 57.4062 180.857 55.4727C182.369 53.5273 184.478 52.5547 187.185 52.5547C189.881 52.5547 191.978 53.4863 193.478 55.3496C194.99 57.2012 195.763 59.8496 195.799 63.2949V67.9531ZM192.582 63.4707C192.582 60.7637 192.136 58.7539 191.246 57.4414C190.367 56.1172 189.013 55.4551 187.185 55.4551C185.416 55.4551 184.074 56.123 183.16 57.459C182.258 58.7949 181.801 60.7637 181.789 63.3652V67.9531C181.789 70.5664 182.24 72.5586 183.142 73.9297C184.056 75.3008 185.416 75.9863 187.22 75.9863C189.025 75.9863 190.361 75.3535 191.228 74.0879C192.095 72.8223 192.547 70.8828 192.582 68.2695V63.4707ZM207.788 68.1465H203.288V78.5H200.053V52.9062H207.225C209.733 52.9062 211.631 53.5625 212.92 54.875C214.209 56.1758 214.854 58.0859 214.854 60.6055C214.854 62.1875 214.502 63.5703 213.799 64.7539C213.108 65.9258 212.124 66.8105 210.846 67.4082L215.803 78.2891V78.5H212.34L207.788 68.1465ZM203.288 65.3867H207.19C208.538 65.3867 209.61 64.9531 210.407 64.0859C211.215 63.2188 211.62 62.0586 211.62 60.6055C211.62 57.3242 210.131 55.6836 207.155 55.6836H203.288V65.3867ZM226 78.5V52.9062H233.295C235.627 52.9062 237.379 53.4746 238.551 54.6113C239.734 55.748 240.326 57.4531 240.326 59.7266C240.326 60.9219 240.027 61.9766 239.43 62.8906C238.832 63.8047 238.023 64.5137 237.004 65.0176C238.176 65.3691 239.101 66.0898 239.781 67.1797C240.473 68.2695 240.818 69.582 240.818 71.1172C240.818 73.4141 240.185 75.2188 238.92 76.5312C237.666 77.8438 235.873 78.5 233.541 78.5H226ZM229.217 66.5293V75.7402H233.611C234.83 75.7402 235.797 75.3418 236.512 74.5449C237.226 73.7363 237.584 72.6055 237.584 71.1523C237.584 68.0703 236.283 66.5293 233.682 66.5293H229.217ZM229.217 63.8223H233.348C234.461 63.8223 235.357 63.4473 236.037 62.6973C236.728 61.9473 237.074 60.9512 237.074 59.709C237.074 58.3027 236.764 57.2832 236.143 56.6504C235.521 56.0059 234.572 55.6836 233.295 55.6836H229.217V63.8223ZM260.19 52.9062V71.0996C260.167 73.5254 259.464 75.4238 258.081 76.7949C256.698 78.166 254.77 78.8516 252.298 78.8516C249.766 78.8516 247.833 78.1836 246.497 76.8477C245.161 75.5 244.481 73.584 244.458 71.0996V52.9062H247.657V70.9766C247.657 72.6992 248.02 73.9883 248.747 74.8438C249.485 75.6875 250.669 76.1094 252.298 76.1094C253.938 76.1094 255.122 75.6875 255.848 74.8438C256.587 73.9883 256.956 72.6992 256.956 70.9766V52.9062H260.19ZM264.427 78.5V52.9062H270.527C273.515 52.9062 275.835 53.8438 277.488 55.7188C279.14 57.582 279.966 60.207 279.966 63.5938V67.8828C279.966 71.2695 279.128 73.8887 277.452 75.7402C275.777 77.5801 273.345 78.5 270.158 78.5H264.427ZM267.644 55.6836V75.7402H270.228C272.49 75.7402 274.142 75.0957 275.185 73.8066C276.228 72.5059 276.761 70.584 276.785 68.041V63.5059C276.785 60.8105 276.263 58.8359 275.22 57.582C274.189 56.3164 272.624 55.6836 270.527 55.6836H267.644ZM284.274 78.5V52.9062H290.373C293.361 52.9062 295.682 53.8438 297.334 55.7188C298.986 57.582 299.813 60.207 299.813 63.5938V67.8828C299.813 71.2695 298.975 73.8887 297.299 75.7402C295.623 77.5801 293.191 78.5 290.004 78.5H284.274ZM287.49 55.6836V75.7402H290.074C292.336 75.7402 293.988 75.0957 295.031 73.8066C296.074 72.5059 296.607 70.584 296.631 68.041V63.5059C296.631 60.8105 296.109 58.8359 295.066 57.582C294.035 56.3164 292.471 55.6836 290.373 55.6836H287.49ZM310.009 65.7559L315.247 52.9062H318.886L311.608 68.9551V78.5H308.391V68.9551L301.114 52.9062H304.77L310.009 65.7559Z" fill="#F7F7F7"/>
</svg>

<?xml version="1.0" encoding="utf-8"?>
<!-- Generator: Adobe Illustrator 24.1.2, SVG Export Plug-In . SVG Version: 6.00 Build 0)  -->
<svg version="1.1" id="Layer_1" xmlns="http://www.w3.org/2000/svg" xmlns:xlink="http://www.w3.org/1999/xlink" x="0px" y="0px"
	 viewBox="0 0 319 79" style="enable-background:new 0 0 319 79;" xml:space="preserve">
<style type="text/css">
	.st0{fill:#F7F7F7;}
	.st1{fill:#ED2127;fill-opacity:0.87;}
</style>
<path class="st0" d="M67.5,7.2H73l11,34.4h-5l-2.9-9.3h-12l-2.9,9.3h-4.9L67.5,7.2z M75,28.3l-3.3-10.6c-0.5-1.4-1-3.5-1.5-5.5
	c-0.4,1.9-1,4-1.4,5.5l-3.3,10.6H75z"/>
<path class="st0" d="M88,25.4c0-6.9,4.6-10.6,10.2-10.6c5.5,0,10.1,3.7,10.1,10.6v16.3h-4.7v-16c0-4.5-2.2-6.8-5.4-6.8
	c-3.2,0-5.5,2.2-5.5,6.8v16H88V25.4z"/>
<path class="st0" d="M114.1,8c0-1.6,1.3-2.9,3-2.9s3,1.3,3,2.9c0,1.6-1.4,2.9-3,2.9C115.5,10.9,114.1,9.7,114.1,8z M114.7,15.4h4.7
	v26.2h-4.7V15.4z"/>
<path class="st1" d="M23.3,0.5C10.5,0.5,0,10.9,0,23.8S10.5,47,23.3,47s23.3-10.4,23.3-23.3S36.2,0.5,23.3,0.5z M23.3,43.8
	c-11.1,0-20.2-9-20.2-20.1s9-20.1,20.2-20.1c11.1,0,20.2,9,20.2,20.1S34.4,43.8,23.3,43.8z"/>
<path class="st1" d="M41.1,23.8c0,9.8-8,17.7-17.8,17.7c-9.8,0-17.8-7.9-17.8-17.7S13.5,6,23.3,6C33.1,6,41.1,13.9,41.1,23.8z"/>
<path class="st0" d="M64.7,71.8H56l-2,6.7h-3.3L59,52.9h2.8L70,78.5h-3.3L64.7,71.8z M56.9,69h7l-3.5-11.6L56.9,69z M76.1,78.5h-3.2
	V52.9h3.2V78.5z M104.7,70.4c-0.1,2.7-0.9,4.8-2.3,6.3c-1.4,1.5-3.4,2.2-5.9,2.2c-2.6,0-4.6-1-6.1-2.9C88.8,74,88,71.3,88,68v-4.6
	c0-3.3,0.8-6,2.3-7.9c1.6-1.9,3.7-2.9,6.4-2.9c2.5,0,4.4,0.7,5.7,2.2c1.4,1.5,2.1,3.6,2.2,6.3h-3.3c-0.1-2.1-0.6-3.6-1.3-4.5
	c-0.7-0.9-1.9-1.3-3.4-1.3c-1.7,0-3.1,0.7-4,2.1c-0.9,1.4-1.4,3.4-1.4,6v4.7c0,2.6,0.4,4.6,1.3,6c0.9,1.4,2.2,2.1,3.8,2.1
	c1.7,0,2.9-0.4,3.6-1.2c0.7-0.8,1.2-2.3,1.4-4.5H104.7z M116,68.1h-4.5v10.4h-3.2V52.9h7.2c2.5,0,4.4,0.7,5.7,2
	c1.3,1.3,1.9,3.2,1.9,5.7c0,1.6-0.4,3-1.1,4.1c-0.7,1.2-1.7,2.1-3,2.7l5,10.9v0.2h-3.5L116,68.1z M111.5,65.4h3.9
	c1.3,0,2.4-0.4,3.2-1.3c0.8-0.9,1.2-2,1.2-3.5c0-3.3-1.5-4.9-4.5-4.9h-3.9V65.4z M139,66.7h-9.1v9.1h10.5v2.8h-13.8V52.9h13.6v2.8
	h-10.4v8.2h9.1V66.7z M155.8,71.8h-8.6l-2,6.7h-3.3l8.2-25.6h2.8l8.3,25.6h-3.3L155.8,71.8z M148,69h7l-3.5-11.6L148,69z
	 M176.6,55.7h-6.7v22.8h-3.2V55.7h-6.7v-2.8h16.7V55.7z M195.8,68c0,3.5-0.7,6.2-2.2,8.1c-1.5,1.9-3.6,2.8-6.3,2.8
	c-2.6,0-4.7-0.9-6.3-2.7c-1.5-1.8-2.3-4.4-2.4-7.8v-4.8c0-3.4,0.8-6.1,2.3-8c1.5-1.9,3.6-2.9,6.3-2.9c2.7,0,4.8,0.9,6.3,2.8
	c1.5,1.9,2.3,4.5,2.3,7.9V68z M192.6,63.5c0-2.7-0.4-4.7-1.3-6c-0.9-1.3-2.2-2-4.1-2c-1.8,0-3.1,0.7-4,2c-0.9,1.3-1.4,3.3-1.4,5.9
	V68c0,2.6,0.5,4.6,1.4,6c0.9,1.4,2.3,2.1,4.1,2.1c1.8,0,3.1-0.6,4-1.9c0.9-1.3,1.3-3.2,1.4-5.8V63.5z M207.8,68.1h-4.5v10.4h-3.2
	V52.9h7.2c2.5,0,4.4,0.7,5.7,2c1.3,1.3,1.9,3.2,1.9,5.7c0,1.6-0.4,3-1.1,4.1c-0.7,1.2-1.7,2.1-3,2.7l5,10.9v0.2h-3.5L207.8,68.1z
	 M203.3,65.4h3.9c1.3,0,2.4-0.4,3.2-1.3c0.8-0.9,1.2-2,1.2-3.5c0-3.3-1.5-4.9-4.5-4.9h-3.9V65.4z M226,78.5V52.9h7.3
	c2.3,0,4.1,0.6,5.3,1.7c1.2,1.1,1.8,2.8,1.8,5.1c0,1.2-0.3,2.3-0.9,3.2c-0.6,0.9-1.4,1.6-2.4,2.1c1.2,0.4,2.1,1.1,2.8,2.2
	c0.7,1.1,1,2.4,1,3.9c0,2.3-0.6,4.1-1.9,5.4c-1.3,1.3-3,2-5.4,2H226z M229.2,66.5v9.2h4.4c1.2,0,2.2-0.4,2.9-1.2
	c0.7-0.8,1.1-1.9,1.1-3.4c0-3.1-1.3-4.6-3.9-4.6H229.2z M229.2,63.8h4.1c1.1,0,2-0.4,2.7-1.1c0.7-0.8,1-1.7,1-3
	c0-1.4-0.3-2.4-0.9-3.1c-0.6-0.6-1.6-1-2.8-1h-4.1V63.8z M260.2,52.9v18.2c0,2.4-0.7,4.3-2.1,5.7s-3.3,2.1-5.8,2.1
	c-2.5,0-4.5-0.7-5.8-2c-1.3-1.3-2-3.3-2-5.7V52.9h3.2V71c0,1.7,0.4,3,1.1,3.9c0.7,0.8,1.9,1.3,3.6,1.3c1.6,0,2.8-0.4,3.6-1.3
	c0.7-0.9,1.1-2.1,1.1-3.9V52.9H260.2z M264.4,78.5V52.9h6.1c3,0,5.3,0.9,7,2.8c1.7,1.9,2.5,4.5,2.5,7.9v4.3c0,3.4-0.8,6-2.5,7.9
	c-1.7,1.8-4.1,2.8-7.3,2.8H264.4z M267.6,55.7v20.1h2.6c2.3,0,3.9-0.6,5-1.9c1-1.3,1.6-3.2,1.6-5.8v-4.5c0-2.7-0.5-4.7-1.6-5.9
	c-1-1.3-2.6-1.9-4.7-1.9H267.6z M284.3,78.5V52.9h6.1c3,0,5.3,0.9,7,2.8c1.7,1.9,2.5,4.5,2.5,7.9v4.3c0,3.4-0.8,6-2.5,7.9
	c-1.7,1.8-4.1,2.8-7.3,2.8H284.3z M287.5,55.7v20.1h2.6c2.3,0,3.9-0.6,5-1.9c1-1.3,1.6-3.2,1.6-5.8v-4.5c0-2.7-0.5-4.7-1.6-5.9
	c-1-1.3-2.6-1.9-4.7-1.9H287.5z M310,65.8l5.2-12.8h3.6l-7.3,16v9.5h-3.2V69l-7.3-16h3.7L310,65.8z"/>
</svg>
